projects/ccf-eui/src/assets/icons/organ-icons/organ-icon-spinal-cord.svg

<svg width="64" height="64" viewBox="0 0 64 64" fill="currentColor" xmlns="http://www.w3.org/2000/svg">
<g clip-path="url(#clip0_1795_417)">
<path d="M25.5796 27.2881C25.9458 29.1403 22.3486 30.1094 23.1887 31.94C24.3303 33.7707 26.7427 34.3522 28.5952 33.2107C28.8967 33.0169 29.1552 32.8015 29.3921 32.5431C31.5461 30.5617 29.0044 28.8388 29.8014 27.4173C30.3614 26.4267 30.5768 26.5343 31.2876 26.1467C31.9338 25.7375 32.6877 25.5652 33.4416 25.6513C35.0571 25.6513 35.8109 28.6234 38.6111 27.5896C41.4113 26.5559 41.1528 23.9284 39.6665 21.9686C38.4388 20.3533 35.9186 23.0885 34.4324 21.9686C33.5924 21.2794 35.7032 18.3719 33.5062 18.7811C31.3092 19.1903 31.3522 20.3749 31.6538 22.9377C31.4384 23.713 30.8784 24.3376 30.146 24.6607C29.4352 25.1129 28.5736 25.3283 27.7336 25.2637C25.5796 23.7992 24.5672 23.2177 23.1887 24.9622C21.8101 26.7066 25.3427 26.2113 25.5796 27.2881Z" />
<path d="M58.8584 16.9505C57.1352 16.5198 53.3011 17.5751 52.8272 17.209C52.3534 16.8428 52.0303 15.8952 50.5225 15.0553C49.3594 14.3231 47.9162 14.1938 46.6454 14.6892C45.4607 15.1414 46.2361 13.8708 42.3374 14.0215C40.5927 13.9569 38.8695 14.3446 37.2971 15.1199C37.2756 15.1199 37.2325 15.1199 37.211 15.1199C33.8723 14.5815 30.0813 15.2061 26.5919 16.9075C23.2748 18.5012 20.69 20.8702 19.053 23.4546L19.1176 23.2392C16.6406 24.2945 14.6158 26.2113 13.4096 28.6234C11.2556 32.3492 12.8065 32.3062 11.7511 33.1892C10.5664 34.1799 9.94172 35.6659 10.0279 37.195C10.114 38.358 10.3725 39.4994 10.7818 40.5763C10.7818 41.0931 7.57235 45.0128 6.47383 47.188C6.12919 47.5541 5.9138 48.071 5.99996 48.6094C6.10765 49.3417 6.68923 49.9016 7.40004 50.0093C7.46465 50.0093 7.52927 49.9662 7.61543 49.9447C7.85237 49.9447 8.06777 49.9016 8.28316 49.794C8.54164 49.6217 8.86473 49.0832 9.18783 48.3725C9.61862 47.7264 9.96326 47.0588 9.96326 46.6496C10.6956 45.0128 11.5572 43.2468 12.5911 42.6653C13.3019 41.8254 14.9389 42.2992 17.1144 42.7299V44.0652L17.1575 43.6991C17.1575 43.6991 17.1575 49.1909 24.6318 50.6339C29.6721 51.603 37.0602 50.8708 37.0602 46.6927C41.562 48.5664 45.4391 40.2747 45.4391 37.2596V32.3708C44.3837 33.4045 42.7467 33.5768 41.5404 32.6508C41.5189 32.6508 41.4974 32.6077 41.4543 32.5862C42.5959 33.0169 43.9313 32.8231 44.7068 32.5862C44.7499 32.5862 44.7714 32.5431 44.8145 32.5431C46.3438 32.0262 48.4978 29.2049 49.5963 27.2666C51.4702 24.1007 52.138 19.858 53.6242 19.5349C55.3258 18.6089 58.3414 20.0518 59.2461 19.5349C59.6122 19.3411 59.8707 18.9965 59.9353 18.5873C60.0861 17.8335 59.5907 17.1228 58.8368 16.9721L58.8584 16.9505ZM27.5396 18.8242C29.9306 17.6612 32.4292 17.0582 34.7985 17.0582C35.5093 17.0582 36.1986 17.1228 36.8879 17.2305C39.6665 17.6828 41.7343 19.0396 42.7036 21.0425C43.6729 23.0454 43.4575 25.5006 42.0789 27.9558C41.0666 29.7864 39.4942 31.4232 37.5771 32.78C36.2201 31.1647 34.777 29.6356 33.2046 28.2142L33.1615 28.2573L32.9892 28.3865C33.7 29.8941 34.3893 31.3155 35.1432 32.6938C35.2939 33.1246 35.4878 33.5338 35.7247 33.8999C35.4878 34.0291 35.2724 34.1799 35.0355 34.2875C28.7459 37.3242 21.9609 36.3335 19.8931 32.0693C17.8252 27.805 21.2501 21.8609 27.5396 18.8242ZM13.1727 39.844C14.3143 37.6903 14.6158 35.1921 13.9912 32.8231C13.7112 30.0233 15.2189 27.3527 17.7391 26.1252C17.3514 27.2451 17.1575 28.3434 17.1575 29.4418H17.136V39.9517C19.5915 39.9732 22.0901 39.9086 24.1579 38.638C24.201 38.6164 24.2656 38.5949 24.3087 38.5518C24.5456 38.358 24.7395 38.1426 24.8687 37.8626C24.8687 37.8626 24.8687 37.8411 24.8903 37.8196H24.9333C24.2225 39.7794 20.7977 40.3394 18.9884 40.447C18.7515 40.447 18.4499 40.4686 18.1699 40.4686C18.1268 40.4686 18.1053 40.4686 18.0622 40.4686C17.7606 40.4686 17.4375 40.4686 17.1144 40.447C14.0989 40.3178 10.3294 39.6933 13.1511 39.7794L13.1727 39.844ZM46.8177 25.9098C46.193 26.4697 45.8053 26.7713 45.4607 26.8789V23.1746H45.4176C45.353 22.0978 45.0945 21.064 44.6206 20.0949C43.6513 18.092 41.9282 16.6059 39.6234 15.7445C41.4974 14.9045 43.716 15.0553 45.4607 16.2614C47.0115 17.7905 49.0793 18.6519 51.2548 18.7165C50.1779 21.344 48.6701 23.7561 46.8177 25.9098Z" />
</g>
<defs>
<clipPath id="clip0_1795_417">
<rect width="54" height="37"  transform="translate(6 14)"/>
</clipPath>
</defs>
</svg>

<svg xmlns="http://www.w3.org/2000/svg" width="64" height="64" fill="currentColor" viewBox="0 0 64 64"><g clip-path="url(#a)"><path d="M25.58 27.288c.366 1.852-3.231 2.821-2.391 4.652a3.937 3.937 0 0 0 5.406 1.27c.302-.193.56-.409.797-.667 2.154-1.981-.388-3.704.41-5.126.56-.99.775-.883 1.486-1.27.646-.41 1.4-.582 2.154-.496 1.615 0 2.369 2.972 5.17 1.939 2.8-1.034 2.54-3.662 1.054-5.621-1.227-1.616-3.747 1.12-5.234 0-.84-.69 1.271-3.597-.926-3.188-2.197.41-2.154 1.594-1.852 4.157a2.67 2.67 0 0 1-1.508 1.723 3.97 3.97 0 0 1-2.412.603c-2.154-1.465-3.167-2.046-4.545-.302-1.379 1.745 2.154 1.25 2.39 2.326"/><path d="M58.858 16.95c-1.723-.43-5.557.625-6.03.259-.475-.366-.798-1.314-2.306-2.154a4.33 4.33 0 0 0-3.877-.366c-1.184.452-.409-.818-4.308-.668a10.5 10.5 0 0 0-5.04 1.099h-.086c-3.339-.538-7.13.086-10.62 1.787-3.316 1.594-5.901 3.963-7.538 6.548l.065-.216a11.4 11.4 0 0 0-5.708 5.384c-2.154 3.726-.604 3.683-1.659 4.566a4.85 4.85 0 0 0-1.723 4.006c.086 1.163.345 2.304.754 3.381 0 .517-3.21 4.437-4.308 6.612-.345.366-.56.883-.474 1.421.108.733.69 1.293 1.4 1.4.065 0 .13-.043.215-.064.237 0 .453-.043.668-.151.259-.172.582-.71.905-1.421.43-.647.775-1.314.775-1.723.733-1.637 1.594-3.403 2.628-3.985.71-.84 2.348-.366 4.523.065v1.335l.043-.366s0 5.492 7.475 6.935c5.04.969 12.428.237 12.428-3.941 4.502 1.873 8.38-6.418 8.38-9.433v-4.89c-1.056 1.035-2.693 1.207-3.9.28-.021 0-.043-.042-.086-.064 1.142.43 2.477.237 3.253 0 .043 0 .064-.043.108-.043 1.529-.517 3.683-3.338 4.781-5.276 1.874-3.166 2.542-7.409 4.028-7.732 1.702-.926 4.717.517 5.622 0 .366-.194.625-.538.69-.948.15-.753-.345-1.464-1.1-1.615zM27.54 18.825c2.39-1.163 4.89-1.766 7.258-1.766.711 0 1.4.065 2.09.172 2.779.453 4.846 1.81 5.816 3.813.969 2.002.754 4.458-.625 6.913-1.012 1.83-2.585 3.467-4.502 4.824a46 46 0 0 0-4.372-4.566l-.044.043-.172.13c.711 1.507 1.4 2.928 2.154 4.307.15.43.345.84.582 1.206-.237.13-.453.28-.69.388-6.29 3.036-13.074 2.046-15.142-2.219s1.357-10.208 7.647-13.245m-14.367 21.02a9.7 9.7 0 0 0 .818-7.02 6.72 6.72 0 0 1 3.748-6.699c-.388 1.12-.582 2.218-.582 3.317h-.021v10.51c2.456.021 4.954-.043 7.022-1.314.043-.022.108-.043.15-.086.238-.194.431-.41.56-.69 0 0 0-.02.022-.042h.043c-.71 1.96-4.135 2.52-5.945 2.627-.236 0-.538.022-.818.022h-.108c-.301 0-.625 0-.948-.022-3.015-.13-6.785-.754-3.963-.668zM46.818 25.91c-.625.56-1.013.861-1.357.969v-3.704h-.043a8.1 8.1 0 0 0-.797-3.08c-.97-2.003-2.693-3.49-4.998-4.35 1.874-.84 4.093-.69 5.838.516a8.6 8.6 0 0 0 5.794 2.456c-1.077 2.627-2.585 5.04-4.437 7.193"/></g><defs><clipPath id="a"><path d="M6 14h54v37H6z"/></clipPath></defs></svg>
